!!!OTL: SUN
**kern	**text	**kern	**text	**kern	**kern	**kern	**kern
*part6	*part6	*part5	*part5	*part4	*part3	*part2	*part1
*staff6	*staff6	*staff5	*staff5	*staff4	*staff3	*staff2	*staff1
*I"ピアノ	*	*I"ピアノ	*	*I"ピアノ	*I"ピアノ	*I"Piano	*I"Lead Vocal
*I'Pno.	*	*I'Pno.	*	*I'Pno.	*I'Pno.	*I'Pno.	*I'Pno.
*clefF4	*	*clefGv2	*	*clefG2	*clefG2	*clefGv2	*clefG2
*k[b-e-a-d-]	*	*k[b-e-a-d-]	*	*k[b-e-a-d-]	*k[b-e-a-d-]	*k[b-e-a-d-]	*k[b-e-a-d-]
*M4/4	*	*M4/4	*	*M4/4	*M4/4	*M4/4	*M4/4
*MM108	*	*MM108	*	*MM108	*MM108	*MM108	*MM108
=1	=1	=1	=1	=1	=1	=1	=1
8.D-L	.	8.cL	da	8.fL	8.a-L	1r	1r
16D-Jk	.	16cJk	dat	16fJk	16a-Jk	.	.
16r	.	16r	.	16r	16r	.	.
16C	.	16B-	dat	16e-	16g	.	.
16r	.	16r	.	16r	16r	.	.
16BB-	.	16A-	dat	16d-	16f	.	.
8.r	.	8.r	.	8.r	8.r	.	.
8.E-L	.	8.A-L	du	8.d-L	8.fL	.	.
8E-J	.	8A-J	dut	8d-J	8fJ	.	.
=2	=2	=2	=2	=2	=2	=2	=2
8D-L	.	8cL	da	8fL	8a-L	1r	1r
16D-L	.	16cL	da	16fL	16a-L	.	.
16D-JJ	.	16cJJ	dat	16fJJ	16a-JJ	.	.
16r	.	16r	.	16r	16r	.	.
16C	.	16B-	dat	16e-	16g	.	.
16r	.	16r	.	16r	16r	.	.
16BB-	.	16A-	dat	16d-	16f	.	.
8.r	.	4r	.	4r	4r	.	.
8.E-L	.	.	.	.	.	.	.
.	.	4A-	woh	4d-	4f	.	.
8E-J	.	.	.	.	.	.	.
=3	=3	=3	=3	=3	=3	=3	=3
8.D-L	.	8.cL	da	8.fL	8.a-L	1r	1r
16D-Jk	.	16cJk	dat	16fJk	16a-Jk	.	.
16r	.	16r	.	16r	16r	.	.
16C	.	16B-	dat	16e-	16g	.	.
16r	.	16r	.	16r	16r	.	.
16BB-	.	16A-	dat	16d-	16f	.	.
4r	.	8.r	.	8.r	8.r	.	.
.	.	8.B-L	du	8.fL	8.a-L	.	.
4E-	.	.	.	.	.	.	.
.	.	8B-J	dut	8fJ	8a-J	.	.
=4	=4	=4	=4	=4	=4	=4	=4
16EE-LL	.	16B-LL	da	16a-LL	16ccLL	16e-LL	1r
16EE-JJ	.	16B-JJ	da	16a-JJ	16ccJJ	16e-JJ	.
16r	.	16r	.	16r	16r	16r	.
16EE-	.	16B-	da	16a-	16cc	16e-	.
16EE-	.	16B-	da	16a-	16cc	16e-	.
16r	.	16r	.	16r	16r	16r	.
16EE-LL	.	16B-LL	da	16a-LL	16ccLL	16e-LL	.
16EE-JJ	.	16B-JJ	da	16a-JJ	16ccJJ	16e-JJ	.
16r	.	16r	.	16r	16r	16r	.
16EE-LL	.	16B-LL	da	16a-LL	16ccLL	16e-LL	.
16EE-JJ	.	16B-JJ	da	16a-JJ	16ccJJ	16e-JJ	.
16r	.	16r	.	16r	16r	16r	.
8EE-	.	8B-	da	8a-	8cc	8e-	.
8r	.	8r	.	8r	8r	8r	.
=5	=5	=5	=5	=5	=5	=5	=5
8.D-L	.	8.cL	da	8.fL	8.a-L	1r	1r
16D-Jk	.	16cJk	dat	16fJk	16a-Jk	.	.
16r	.	16r	.	16r	16r	.	.
16C	.	16B-	dat	16e-	16g	.	.
16r	.	16r	.	16r	16r	.	.
16BB-	.	16A-	dat	16d-	16f	.	.
8.r	.	8.r	.	8.r	8.r	.	.
8.E-L	.	8.A-L	du	8.d-L	8.fL	.	.
8E-J	.	8A-J	dut	8d-J	8fJ	.	.
=6	=6	=6	=6	=6	=6	=6	=6
8D-L	.	8cL	da	8fL	8a-L	1r	1r
16D-L	.	16cL	da	16fL	16a-L	.	.
16D-JJ	.	16cJJ	dat	16fJJ	16a-JJ	.	.
16r	.	16r	.	16r	16r	.	.
16C	.	16B-	dat	16e-	16g	.	.
16r	.	16r	.	16r	16r	.	.
16BB-	.	16A-	dat	16d-	16f	.	.
8.r	.	4r	.	4r	4r	.	.
8.E-L	.	.	.	.	.	.	.
.	.	4A-	woh	4d-	4f	.	.
8E-J	.	.	.	.	.	.	.
=7	=7	=7	=7	=7	=7	=7	=7
8.D-L	.	8.cL	da	8.fL	8.a-L	1r	1r
16D-Jk	.	16cJk	dat	16fJk	16a-Jk	.	.
16r	.	16r	.	16r	16r	.	.
16C	.	16B-	dat	16e-	16g	.	.
16r	.	16r	.	16r	16r	.	.
16BB-	.	16A-	dat	16d-	16f	.	.
4r	.	8.r	.	8.r	8.r	.	.
.	.	8.B-L	du	8.fL	8.a-L	.	.
4E-	.	.	.	.	.	.	.
.	.	8B-J	dut	8fJ	8a-J	.	.
=8	=8	=8	=8	=8	=8	=8	=8
16EE-LL	.	16B-LL	da	16a-LL	16ccLL	16e-LL	1r
16EE-JJ	.	16B-JJ	da	16a-JJ	16ccJJ	16e-JJ	.
16r	.	16r	.	16r	16r	16r	.
16EE-	.	16B-	da	16a-	16cc	16e-	.
16EE-	.	16B-	da	16a-	16cc	16e-	.
16r	.	16r	.	16r	16r	16r	.
16EE-LL	.	16B-LL	da	16a-LL	16ccLL	16e-LL	.
16EE-JJ	.	16B-JJ	da	16a-JJ	16ccJJ	16e-JJ	.
16r	.	16r	.	16r	16r	16r	.
16EE-LL	.	16B-LL	da	16a-LL	16ccLL	16e-LL	.
16EE-JJ	.	16B-JJ	da	16a-JJ	16ccJJ	16e-JJ	.
16r	.	16r	.	16r	16r	16r	.
8EE-	.	8B-	da	8a-	8cc	8e-	.
8r	.	8r	.	8r	8r	8r	.
=9	=9	=9	=9	=9	=9	=9	=9
8AA-'L	.	2c	oo	2e-	1r	8cL	8cL
8AA-J	.	.	.	.	.	8cJ	8cJ
8r	.	.	.	.	.	4r	4r
8AA-	.	.	.	.	.	.	.
8GG'L	.	4B-	.	4d-	.	8r	8r
8GG	.	.	.	.	.	8A-	8A-
8C'	.	4A-	.	4c	.	16B-KL	16B-KL
.	.	.	.	.	.	8c	8c
8CJ	.	.	.	.	.	.	.
.	.	.	.	.	.	[16d-Jk	[16d-Jk
=10	=10	=10	=10	=10	=10	=10	=10
8F'L	.	2A-	.	2.e-	2r	4d-]	4d-]
8FJ	.	.	.	.	.	.	.
8r	.	.	.	.	.	4e-	4e-
8F	.	.	.	.	.	.	.
8E-'L	.	2G-X	.	.	4r	8B-L	8B-L
8E-	.	.	.	.	.	8A-	8A-
8AA-'	.	.	.	4e-	4a-	8B-	8B-
8AA-J	.	.	.	.	.	8cJ	8cJ
=11	=11	=11	=11	=11	=11	=11	=11
8C'L	.	4r	.	2e-	2g	4c	4c
8CJ	.	.	.	.	.	.	.
8r	.	4B-	.	.	.	4r	4r
8C	.	.	.	.	.	.	.
8FF'L	.	2c	.	2e-	2a-	8r	8r
8FFJ	.	.	.	.	.	8F	8F
8r	.	.	.	.	.	16GKL	16GKL
.	.	.	.	.	.	8A-	8A-
8FF	.	.	.	.	.	.	.
.	.	.	.	.	.	[16FJk	[16FJk
=12	=12	=12	=12	=12	=12	=12	=12
8GG'L	.	2A-	.	2d-	4r	4F]	4F]
8GG	.	.	.	.	.	.	.
8F	.	.	.	.	4f	4A-	4A-
8EnJ	.	.	.	.	.	.	.
8E-X	.	2G	.	2B-	2e-	8e-L	8e-L
8r	.	.	.	.	.	8cJ	8cJ
4E-	.	.	.	.	.	4B-	4B-
=13	=13	=13	=13	=13	=13	=13	=13
8AA-'L	.	4r	.	4r	4r	8cL	8cL
8AA-J	.	.	.	.	.	8cJ	8cJ
8r	.	8.A-L	La-	8.cL	8.e-L	4r	4r
8AA-	.	.	.	.	.	.	.
.	.	16A-Jk	-dy	16cJk	16e-Jk	.	.
8GG'L	.	2r	.	2r	2r	8r	8r
8GG	.	.	.	.	.	8A-	8A-
8C'	.	.	.	.	.	16B-KL	16B-KL
.	.	.	.	.	.	8c	8c
8CJ	.	.	.	.	.	.	.
.	.	.	.	.	.	[16d-Jk	[16d-Jk
=14	=14	=14	=14	=14	=14	=14	=14
8AA-L	.	2A-	oo	2.e-	2r	4d-]	4d-]
8C	.	.	.	.	.	.	.
8F	.	.	.	.	.	4e-	4e-
8EnJ	.	.	.	.	.	.	.
8E-X	.	2G-X	.	.	4r	8B-L	8B-L
8r	.	.	.	.	.	8A-	8A-
4AA-	.	.	.	4e-	4a-	8B-	8B-
.	.	.	.	.	.	8cJ	8cJ
=15	=15	=15	=15	=15	=15	=15	=15
8C'L	.	4r	.	2e-	2g	4c	4c
8CJ	.	.	.	.	.	.	.
8r	.	4B-	.	.	.	4r	4r
8C	.	.	.	.	.	.	.
8FF'L	.	2c	.	2e-	2a-	8r	8r
8FFJ	.	.	.	.	.	8F	8F
8r	.	.	.	.	.	16GKL	16GKL
.	.	.	.	.	.	8A-	8A-
8FF	.	.	.	.	.	.	.
.	.	.	.	.	.	[16FJk	[16FJk
=16	=16	=16	=16	=16	=16	=16	=16
8AA-'L	.	4B-	う	4d-	4f	4F]	4F]
8AA-J	.	.	.	.	.	.	.
8r	.	4d-	た	4f	4a-	8.A-L	8.A-L
8AA-	.	.	.	.	.	.	.
.	.	.	.	.	.	[16e-Jk	[16e-Jk
8E-'L	.	2B-	い	2g	2b-	2e-]	2e-]
8E-J	.	.	.	.	.	.	.
4E-	.	.	.	.	.	.	.
=17	=17	=17	=17	=17	=17	=17	=17
8D-	.	8A-	bat	8f	8cc	8.cL	8.cL
8r	.	8r	.	8r	8r	.	.
.	.	.	.	.	.	16B-Jk	16B-Jk
8r	.	8r	.	8r	8r	8c	8c
8D-	.	8A-	ba	8f	8cc	8r	8r
8C	.	8G	dat	8e-	8b-	8cL	8cL
8r	.	8r	.	8r	8r	8e-	8e-
8r	.	8r	.	8r	8r	8c	8c
8C	.	8G	ba	8e-	8b-	8B-J	8B-J
=18	=18	=18	=18	=18	=18	=18	=18
8BB-L	.	8F	dat	8d-	8a-	8.cL	8.cL
8CJ	.	8r	.	8r	8r	.	.
.	.	.	.	.	.	16B-Jk	16B-Jk
4C	.	8r	.	4r	4r	8c	8c
.	.	8F	tu	.	.	8r	8r
8AA-L	.	4G	lu	8e-L	8a-L	8cL	8cL
8BB-J	.	.	.	8f	8b-	8e-	8e-
4C	.	4G	lu	8e-	8a-	8c	8c
.	.	.	.	8e-J	8b-J	8B-J	8B-J
=19	=19	=19	=19	=19	=19	=19	=19
8D-	.	8A-	ba	8f	8cc	4A-	4A-
8r	.	8r	.	8r	8r	.	.
8r	.	8A-L	げ	8fL	8ccL	8A-L	8A-L
8D-	.	8A-J	ん	8fJ	8ccJ	8cJ	8cJ
8C	.	4G	そ	4e-	4b-	4e-	4e-
8r	.	.	.	.	.	.	.
8r	.	4G	う	4e-	4b-	8.fL	8.fL
8D-	.	.	.	.	.	.	.
.	.	.	.	.	.	[16A-Jk	[16A-Jk
=20	=20	=20	=20	=20	=20	=20	=20
8CL	.	2F	が	2d-	1a-	4A-]	4A-]
8CJ	.	.	.	.	.	.	.
8r	.	.	.	.	.	4r	4r
8C	.	.	.	.	.	.	.
8BB-L	.	4A-	ー	2e-	.	8.FL	8.FL
8C-X	.	.	.	.	.	.	.
.	.	.	.	.	.	8.G	8.G
8Cn	.	4B-	ー	.	.	.	.
8D-J	.	.	.	.	.	16A-L	16A-L
.	.	.	.	.	.	[16e-JJ	[16e-JJ
=21	=21	=21	=21	=21	=21	=21	=21
8E-L	.	4d-	は	4f	4a-	2e-]	2e-]
8E-	.	.	.	.	.	.	.
8E-	は	4d-	じ	4f	4a-	.	.
8BB-J	じ	.	.	.	.	.	.
8E-L	け	8e-L	け	8gL	8b-L	4r	4r
8E-J	る	8e-J	る	8g	8b-J	.	.
4r	.	4r	.	8c	4r	8A-L	8A-L
.	.	.	.	8d-J	.	8B-J	8B-J
=22	=22	=22	=22	=22	=22	=22	=22
8AA-'L	.	4r	.	8e-	4r	8c	8c
8AA-	.	.	.	8r	.	8r	8r
8BB-	.	8e-L	こ	8cL	8a-L	8A-L	8A-L
8CJ	.	8e-J	え	8d-J	8a-J	8B-J	8B-J
8D-'L	.	8f	を	8e-	8a-	8c	8c
8D-J	.	8r	.	8r	8r	8r	8r
8r	.	8fL	き	8e-L	8a-L	8cL	8cL
8D-	.	8fJ	か	8a-J	8a-J	8fJ	8fJ
=23	=23	=23	=23	=23	=23	=23	=23
8Dn'L	.	4.e-	せ	4.g	4.b-	4.e-	4.e-
8D	.	.	.	.	.	.	.
8E-'	.	.	.	.	.	.	.
8E-J	.	[8c	て	[8e-	[8a-	[8A-	[8A-
8En'L	.	2c]	ー	2e-]	2a-]	4A-]	4A-]
8EJ	.	.	.	.	.	.	.
8r	.	.	.	.	.	8FL	8FL
8C	.	.	.	.	.	8A-J	8A-J
=24	=24	=24	=24	=24	=24	=24	=24
8BB-'L	.	1r	.	8r	8r	4d-	4d-
8BB-J	.	.	.	8f	8a-	.	.
8r	.	.	.	16r	16r	4e-	4e-
.	.	.	.	8f	8a-	.	.
8BB-	.	.	.	.	.	.	.
.	.	.	.	16r	16r	.	.
8CL	.	.	.	2e-	2g	8d-L	8d-L
8C	せ	.	.	.	.	8c	8c
8C	か	.	.	.	.	8B-	8B-
8CJ	い	.	.	.	.	8A-J	8A-J
=25	=25	=25	=25	=25	=25	=25	=25
8BB-L	て	8B-L	て	8d-L	8fL	8FL	8FL
8AA-	ら	8A-	ら	8d-	8f	8A-	8A-
8GG	す	8B-	す	8e-	8a-	8B-	8B-
8FFJ	よ	8cJ	よう	8fJ	8a-J	8cJ	8cJ
8r	.	4B-	な	4e-	4g	4B-	4B-
8E-'L	.	.	.	.	.	.	.
8E-	.	8cL	き	8cL	8fL	8A-L	8A-L
8BB-J	.	8d-J	み	8d-J	8gJ	8B-J	8B-J
=26	=26	=26	=26	=26	=26	=26	=26
8AA-'L	.	8e-	の	8e-	8a-	8c	8c
8AA-	.	8r	.	8r	8r	8r	8r
8BB-	.	4e-	こ	8cL	4a-	8A-L	8A-L
8CJ	.	.	.	8d-J	.	8B-J	8B-J
8D-'L	.	8f	え	8e-	8a-	8c	8c
8D-J	.	8r	.	8r	8r	8r	8r
8r	.	8fL	き	8e-L	8a-L	8cL	8cL
8D-	.	8fJ	か	8a-J	8a-J	8fJ	8fJ
=27	=27	=27	=27	=27	=27	=27	=27
8E-'L	.	4.e-	せ	4.g	4.b-	4.e-	4.e-
8E-J	.	.	.	.	.	.	.
8r	.	.	.	.	.	.	.
8E-	.	[8c	て	[8f	[8cc	[8a-	[8a-
8F-X'L	.	2c]	ー	2f]	2cc]	4a-]	4a-]
8F-J	.	.	.	.	.	.	.
8r	.	.	.	.	.	8gL	8gL
8C	.	.	.	.	.	8fJ	8fJ
=28	=28	=28	=28	=28	=28	=28	=28
8BB-'L	.	4.r	.	4.r	4.r	8e-L	8e-L
8BB-J	.	.	.	.	.	8c	8c
8r	.	.	.	.	.	8B-	8B-
8BB-	と	8A-	と	8a-	8a-	8cJ	8cJ
8CL	お	8GL	お	8gL	8gL	4e-	4e-
8C	い	8E-	い	8e-	8e-	.	.
8C	と	8AA-	と	8A-	8A-	8r	8r
8CJ	こ	8BB-J	こ	8B-J	8B-J	8f	8f
=29	=29	=29	=29	=29	=29	=29	=29
8BB-'L	.	4C	ろ	4c	4c	8e-L	8e-L
8BB-J	.	.	.	.	.	8c	8c
8r	.	8r	.	8r	8r	8B-	8B-
8BB-	あ	8A-	あ	8a-	8a-	8cJ	8cJ
8CL	め	8GL	め	8gL	8gL	4e-	4e-
8C	の	8E-	の	8e-	8e-	.	.
8C	な	8AA-	な	8A-	8A-	8r	8r
8CJ	か	8BB-J	か	8B-J	8B-J	8f	8f
=30	=30	=30	=30	=30	=30	=30	=30
8D-	も	4C	も	4c	4c	8e-L	8e-L
8r	.	.	.	.	.	8c	8c
4C	.	4A-	fu-	4c	4f	8B-	8B-
.	.	.	.	.	.	8cJ	8cJ
4BB-	.	2c	.	2d-	2a-	8e-	8e-
.	.	.	.	.	.	4f	4f
4E-	.	.	.	.	.	.	.
.	.	.	.	.	.	[8A-	[8A-
=31	=31	=31	=31	=31	=31	=31	=31
4BB-	い	4A-	い	4d-	4f	1A-]	1A-]
8.AA-L	の	8.B-L	の	8.d-L	8.gL	.	.
16FFJk	り	16cJk	り	16e-Jk	16a-Jk	.	.
4r	.	4r	.	4r	4r	.	.
16r	.	16r	.	16r	16r	.	.
8FL	と	8cL	と	8e-L	8a-L	.	.
16FJk	ど	16B-Jk	ど	16d-Jk	16fJk	.	.
=32	=32	=32	=32	=32	=32	=32	=32
4E-	く	4A-	く	4d-	4g-X	2r	2r
8.AA-L	な	8.fL	な	8.cL	8.b-L	.	.
16D-Jk	ら	16e-Jk	ら	16cJk	16a-Jk	.	.
2r	.	2r	.	2r	2r	4r	4r
.	.	.	.	.	.	16r	16r
.	.	.	.	.	.	8A-L	8A-L
.	.	.	.	.	.	16FJk	16FJk
=33	=33	=33	=33	=33	=33	=33	=33
4BB-	.	4A-	du	4d-	4f	8A-L	8A-L
.	.	.	.	.	.	16fK	16fK
.	.	.	.	.	.	8e-	8e-
8.CL	.	8.B-L	du	8.e-L	8.gL	.	.
.	.	.	.	.	.	8c	8c
16D-Jk	.	16cJk	du	16fJk	16a-Jk	[16A-Jk	[16A-Jk
2r	.	2r	.	2r	2r	16A-KL]	16A-KL]
.	.	.	.	.	.	8F	8F
.	.	.	.	.	.	8A-	8A-
.	.	.	.	.	.	8B-	8B-
.	.	.	.	.	.	[16cJk	[16cJk
=34	=34	=34	=34	=34	=34	=34	=34
4F	.	4c	woh	4e-	4a-	4c]	4c]
16r	.	16r	.	16r	16r	16r	16r
8.F	ぼ	8.f	ぼ	8.f	8.f	8.f	8.f
8E-L	く	8e-L	く	8e-L	8e-L	8e-L	8e-L
8C	た	8c	た	8c	8c	8c	8c
8BB-	ち	8B-	ち	8B-	8B-	8B-	8B-
8AA-J	は	8A-J	は	8A-J	8A-J	[8A-J	[8A-J
=35	=35	=35	=35	=35	=35	=35	=35
4BB-	い	4A-	い	4d-	4f	2A-]	2A-]
8.AA-L	つ	8.B-L	つ	8.d-L	8.gL	.	.
16FFJk	か	16cJk	か	16e-Jk	16a-Jk	.	.
4r	.	4r	.	4r	4r	16r	16r
.	.	.	.	.	.	[16e-KL	[16e-KL
.	.	.	.	.	.	8e-J]	8e-J]
16r	.	16r	.	16r	16r	8.cL	8.cL
8FL	お	8cL	お	8e-L	8a-L	.	.
16FJk	わ	16B-Jk	わ	16d-Jk	16fJk	[16A-Jk	[16A-Jk
=36	=36	=36	=36	=36	=36	=36	=36
4E-	る	4A-	る	4d-	4g-X	4A-]	4A-]
8.AA-L	か	8.fL	か	8.cL	8.b-L	8r	8r
.	.	.	.	.	.	16r	16r
16D-Jk	ら	16e-Jk	ら	16cJk	16a-Jk	16A-	16A-
2r	.	2r	.	2r	2r	8A-L	8A-L
.	.	.	.	.	.	16A-K	16A-K
.	.	.	.	.	.	8B-	8B-
.	.	.	.	.	.	8.A-J	8.A-J
=37	=37	=37	=37	=37	=37	=37	=37
4BB-	お	4d-	お	4f	4a-	4A-	4A-
8.CL	ど	8.e-L	ど	8.gL	8.b-L	8.B-L	8.B-L
16D-Jk	る	16fJk	る	16a-Jk	16ccJk	16cJk	16cJk
4r	.	4r	.	2r	2r	4r	4r
8r	.	8.fL	い	.	.	8.fL	8.fL
8C	.	.	.	.	.	.	.
.	.	[16e-Jk	ま	.	.	[16e-Jk	[16e-Jk
=38	=38	=38	=38	=38	=38	=38	=38
8E-'L	.	2e-_	ー	4r	4r	2e-_	2e-_
8E-'	.	.	.	.	.	.	.
8E-'	.	.	.	4f	4a-	.	.
8E-'J	.	.	.	.	.	.	.
8E-'L	.	4e-]	ー	4e-	4g	4e-]	4e-]
8E-'	.	.	.	.	.	.	.
8E-'	.	8cL	い	8e-L	8a-L	8cL	8cL
8E-'J	.	[8BnJ	ま	[8enJ	[8anJ	[8enJ	[8enJ
=39	=39	=39	=39	=39	=39	=39	=39
8En'L	.	2B]	ー	2e]	2a]	2e]	2e]
8E'	.	.	.	.	.	.	.
8E'	.	.	.	.	.	.	.
8E'J	.	.	.	.	.	.	.
8EL	.	8AnL	da	8enL	8bnL	4r	4r
8EJ	.	8AJ	dat	8e	8bJ	.	.
4r	.	4r	.	8d-	4r	8AnL	8AnL
.	.	.	.	8dnJ	.	8BnJ	8BnJ
=40	=40	=40	=40	=40	=40	=40	=40
*k[f#c#g#]	*	*k[f#c#g#]	*	*k[f#c#g#]	*k[f#c#g#]	*k[f#c#g#]	*k[f#c#g#]
8AA'L	.	4r	.	8e	4r	8c#	8c#
8AA	.	.	.	8r	.	8r	8r
8BB	.	8eL	こ	8c#L	8aL	8AL	8AL
8C#J	.	8eJ	え	8dJ	8aJ	8BJ	8BJ
8D'L	.	8f#	を	8e	8a	8c#	8c#
8DJ	.	8r	.	8r	8r	8r	8r
8r	.	8f#L	き	8eL	8aL	8c#L	8c#L
8D	.	8f#J	か	8aJ	8aJ	8f#J	8f#J
=41	=41	=41	=41	=41	=41	=41	=41
8D#X'L	.	4.e	せ	4.g#	4.b	4.e	4.e
8D#	.	.	.	.	.	.	.
8E'	.	.	.	.	.	.	.
8EJ	.	[8c#	て	[8e	[8a	[8A	[8A
8E#X'L	.	2c#]	ー	2e]	2a]	4A]	4A]
8E#J	.	.	.	.	.	.	.
8r	.	.	.	.	.	8F#L	8F#L
8C#	.	.	.	.	.	8AJ	8AJ
=42	=42	=42	=42	=42	=42	=42	=42
8BB'L	.	1r	.	8r	8r	4d	4d
8BBJ	.	.	.	8f#	8a	.	.
8r	.	.	.	16r	16r	4e	4e
.	.	.	.	16f#	16a	.	.
8BB	.	.	.	8r	8r	.	.
8C#L	.	.	.	2e	2g#	8dL	8dL
8C#	せ	.	.	.	.	8c#	8c#
8C#	か	.	.	.	.	8B	8B
8C#J	い	.	.	.	.	8AJ	8AJ
=43	=43	=43	=43	=43	=43	=43	=43
8BBL	て	8BL	て	8dL	8f#L	8F#L	8F#L
8AA	ら	8A	ら	8d	8f#	8A	8A
8GG#	す	8B	す	8e	8a	8B	8B
8FF#J	よ	8c#J	よう	8f#J	8aJ	8c#J	8c#J
8r	.	8B	な	8e	8g#	8B	8B
8E'L	.	8r	.	8r	8r	8r	8r
8E	.	8c#L	き	8c#L	8f#L	8AL	8AL
8BBJ	.	8dJ	み	8dJ	8g#J	8BJ	8BJ
=44	=44	=44	=44	=44	=44	=44	=44
8AA'L	.	8e	の	8e	8a	8c#	8c#
8AA	.	8r	.	8r	8r	8r	8r
8BB	.	4e	こ	8c#L	4a	8AL	8AL
8C#J	.	.	.	8dJ	.	8BJ	8BJ
8D'L	.	8f#	え	8e	8a	8c#	8c#
8DJ	.	8r	.	8r	8r	8r	8r
8r	.	8f#L	き	8eL	8aL	8c#L	8c#L
8D	.	8f#J	か	8aJ	8aJ	8f#J	8f#J
=45	=45	=45	=45	=45	=45	=45	=45
8E'L	.	4.e	せ	4.g#	4.b	4.e	4.e
8EJ	.	.	.	.	.	.	.
8r	.	.	.	.	.	.	.
8E	.	[8c#	て	[8f#	[8cc#	[8a	[8a
8Fn'L	.	2c#]	ー	2f#]	2cc#]	4a]	4a]
8FJ	.	.	.	.	.	.	.
8r	.	.	.	.	.	8g#L	8g#L
8C#	.	.	.	.	.	8f#J	8f#J
=46	=46	=46	=46	=46	=46	=46	=46
8BB'L	.	4r	.	4r	4r	8eL	8eL
8BBJ	.	.	.	.	.	8c#	8c#
8r	.	8r	.	8r	8r	8B	8B
8BB	と	8A	と	8a	8a	8c#J	8c#J
8C#L	お	8G#L	お	8g#L	8g#L	4e	4e
8C#	い	8E	い	8e	8e	.	.
8C#	と	8AA	と	8A	8A	8r	8r
8C#J	こ	8BBJ	こ	8BJ	8BJ	8f#	8f#
=47	=47	=47	=47	=47	=47	=47	=47
8D	ろ	4C#	ろ	4c#	4c#	8e	8e
8r	.	.	.	.	.	4a	4a
4C#	.	4A	woh	4c#	4f#	.	.
.	.	.	.	.	.	8A	8A
8r	.	8r	.	4r	8r	4r	4r
4.E	.	4.c#	oh	.	4.b	.	.
.	.	.	.	8c#L	.	8AL	8AL
.	.	.	.	8dJ	.	8BJ	8BJ
=48	=48	=48	=48	=48	=48	=48	=48
8AA'L	.	4r	.	8e	4r	8c#	8c#
8AA	.	.	.	8r	.	8r	8r
8BB	.	8eL	う	8c#L	8aL	8AL	8AL
8C#J	.	8eJ	た	8dJ	8aJ	8BJ	8BJ
8D'L	.	8f#	を	8e	8a	8c#	8c#
8DJ	.	8r	.	8r	8r	8r	8r
8r	.	8f#L	き	8eL	8aL	8c#L	8c#L
8D	.	8f#J	か	8aJ	8aJ	8f#J	8f#J
=49	=49	=49	=49	=49	=49	=49	=49
8D#X'L	.	4.e	せ	4.g#	4.b	4.e	4.e
8D#	.	.	.	.	.	.	.
8E'	.	.	.	.	.	.	.
8EJ	.	[8c#	て	[8f#	[8a	[8A	[8A
8E#X'L	.	2c#]	ー	2f#]	2a]	4A]	4A]
8E#J	.	.	.	.	.	.	.
8r	.	.	.	.	.	8F#L	8F#L
8C#	.	.	.	.	.	8AJ	8AJ
=50	=50	=50	=50	=50	=50	=50	=50
8BB'L	.	1r	.	8r	8r	4d	4d
8BBJ	.	.	.	8f#	8a	.	.
8r	.	.	.	16r	16r	4e	4e
.	.	.	.	16f#	16a	.	.
8BB	.	.	.	8r	8r	.	.
8C#L	.	.	.	2e	2g#	8dL	8dL
8C#	せ	.	.	.	.	8c#	8c#
8C#	か	.	.	.	.	8B	8B
8C#J	い	.	.	.	.	8AJ	8AJ
=51	=51	=51	=51	=51	=51	=51	=51
8BBL	す	8BL	す	8dL	8f#L	8F#L	8F#L
8AA	く	8A	く	8d	8f#	8A	8A
8GG#	う	8B	う	8e	8a	8B	8B
8FF#J	よ	8c#J	よう	8f#J	8aJ	8c#J	8c#J
8r	.	8B	な	8e	8g#	8B	8B
8E'L	.	8r	.	8r	8r	8r	8r
8E	.	8c#L	き	8c#L	8f#L	8AL	8AL
8BBJ	.	8dJ	み	8dJ	8g#J	8BJ	8BJ
=52	=52	=52	=52	=52	=52	=52	=52
8AA'L	.	8e	の	8e	8a	8c#	8c#
8AA	.	8r	.	8r	8r	8r	8r
8BB	.	4e	う	8c#L	4a	8AL	8AL
8C#J	.	.	.	8dJ	.	8BJ	8BJ
8D'L	.	8f#	た	8e	8a	8c#	8c#
8DJ	.	8r	.	8r	8r	8r	8r
8r	.	8f#L	き	8eL	8aL	8c#L	8c#L
8D	.	8f#J	か	8aJ	8aJ	8f#J	8f#J
=53	=53	=53	=53	=53	=53	=53	=53
8E'L	.	4.e	せ	4.g#	4.b	4.e	4.e
8EJ	.	.	.	.	.	.	.
8r	.	.	.	.	.	.	.
8E	.	[8c#	て	[8f#	[8cc#	[8a	[8a
8Fn'L	.	2c#]	ー	2f#]	2cc#]	4a]	4a]
8FJ	.	.	.	.	.	.	.
8r	.	.	.	.	.	8g#L	8g#L
8C#	.	.	.	.	.	8f#J	8f#J
=54	=54	=54	=54	=54	=54	=54	=54
8BB'L	.	4r	.	4r	4r	8eL	8eL
8BBJ	.	.	.	.	.	8c#	8c#
8r	.	8r	.	8r	8r	8B	8B
8BB	ふ	8A	ふ	8a	8a	8c#J	8c#J
8C#L	か	8G#L	か	8g#L	8g#L	4e	4e
8C#	い	8E	い	8e	8e	.	.
8C#	や	8AA	や	8A	8A	8r	8r
8C#J	み	8BBJ	み	8BJ	8BJ	8f#	8f#
=55	=55	=55	=55	=55	=55	=55	=55
8BB'L	.	4C#	も	4c#	4c#	8eL	8eL
8BBJ	.	.	.	.	.	8c#	8c#
8r	.	8r	.	8r	8r	8B	8B
8BB	つ	8A	つ	8a	8a	8c#J	8c#J
8C#L	き	8G#L	き	8g#L	8g#L	4e	4e
8C#	の	8E	の	8e	8e	.	.
8C#	う	8AA	う	8A	8A	8r	8r
8C#J	え	8BBJ	え	8BJ	8BJ	8f#	8f#
=56	=56	=56	=56	=56	=56	=56	=56
8C#	も	4C#	も	4c#	4c#	8eL	8eL
8r	.	.	.	.	.	8c#	8c#
4C#	お	4F#	お	4c#	4e	8B	8B
.	.	.	.	.	.	8c#J	8c#J
8BBL	も	8AL	も	8dL	8f#L	8eL	8eL
8BB	い	8A	い	8c#	8e	8c#	8c#
8E	ど	8B	ど	8d	8f#	8B	8B
8EJ	お	8AJ	お	8eJ	8eJ	8AJ	8AJ
=57	=57	=57	=57	=57	=57	=57	=57
8F#	り	8A	り	8c#	8e	8A	1r
8.r	.	8.r	.	8.r	8.r	8.r	.
8.FF#	.	8.F#	ah	8.e	8.a	8.A	.
16BB	.	16F#	ah	16e-X	16a	16A	.
4r	.	4r	.	4r	4r	4r	.
8.BB	.	8.F#	ah	8.e-	8.a	8.A	.
=58	=58	=58	=58	=58	=58	=58	=58
16E	.	16G#	ah	16d	16b	16E	1r
4r	.	4r	.	4r	4r	4r	.
8.E	.	8.G#	ah	8.d	8.b	8.E	.
4AA	.	4A	ah	4e	4cc#	4A	.
4GGn	.	8GnL	ah	4e	4b	8GnL	.
.	.	16AL	ah	.	.	16AL	.
.	.	16GJJ	ah	.	.	16GJJ	.
=59	=59	=59	=59	=59	=59	=59	=59
16FF#	.	16A	ah	16e	16a	16F#	1r
4r	.	4r	.	4r	4r	4r	.
8.FF#	.	8.F#	ah	8.e	8.a	8.F#	.
16BB	.	16F#	ah	16e-X	16a	16B	.
4r	.	4r	.	4r	4r	4r	.
8.BB	.	8.F#	.	8.e-	8.a	8.B	.
=60	=60	=60	=60	=60	=60	=60	=60
16E	.	16G#	.	16d	16b	16E	1r
4r	.	4r	.	4r	4r	4r	.
8.E	.	8.G#	.	8.d	8.b	8.E	.
4AA	.	4A	.	4e	4cc#	4A	.
4GGn	.	8GnL	.	4e	4b	8GnL	.
.	.	16AL	.	.	.	16AL	.
.	.	16GJJ	.	.	.	16GJJ	.
=61	=61	=61	=61	=61	=61	=61	=61
16FF#	.	16A	.	16e	16a	16F#	1r
4r	.	4r	.	4r	4r	4r	.
8.FF#	.	8.F#	.	8.e	8.a	8.F#	.
16BB	.	16F#	.	16e-X	16a	16B	.
4r	.	4r	.	4r	4r	4r	.
8.BB	.	8.F#	.	8.e-	8.a	8.B	.
=62	=62	=62	=62	=62	=62	=62	=62
16E	.	16G#	.	16d	16b	16E	1r
4r	.	4r	.	4r	4r	4r	.
8.E	.	8.G#	.	8.d	8.b	8.E	.
4AA	.	4A	.	4e	4cc#	4A	.
4GGn	.	8GnL	.	4e	4b	8GnL	.
.	.	16AL	.	.	.	16AL	.
.	.	16GJJ	.	.	.	16GJJ	.
=63	=63	=63	=63	=63	=63	=63	=63
16FF#	.	16A	.	16e	16a	16F#	1r
4r	.	4r	.	4r	4r	4r	.
8.FF#	.	8.F#	.	8.e	8.a	8.F#	.
16BB	.	16F#	.	16e-X	16a	16B	.
4r	.	4r	.	4r	4r	4r	.
8.BB	.	8.F#	.	8.e-	8.a	8.B	.
=64	=64	=64	=64	=64	=64	=64	=64
16E	.	16G#	.	16d	16b	16E	1r
4r	.	4r	.	4r	4r	4r	.
8.E	.	8.G#	.	8.d	8.b	8.E	.
4AA	.	4A	.	4e	4cc#	4A	.
4r	.	4r	.	4r	4r	4r	.
=65	=65	=65	=65	=65	=65	=65	=65
8.DL	.	8.c#L	da	8.f#L	8.aL	1r	1r
16DJk	.	16c#Jk	dat	16f#Jk	16aJk	.	.
16r	.	16r	.	16r	16r	.	.
16C#	.	16B	dat	16e	16g#	.	.
16r	.	16r	.	16r	16r	.	.
16BB	.	16A	dat	16d	16f#	.	.
8.r	.	8.r	.	8.r	8.r	.	.
8.EL	.	8.AL	du	8.dL	8.f#L	.	.
8EJ	.	8AJ	du	8dJ	8f#J	.	.
=66	=66	=66	=66	=66	=66	=66	=66
8DL	.	8c#L	.	8f#L	8aL	1r	1r
16DL	.	16c#L	.	16f#L	16aL	.	.
16DJJ	.	16c#JJ	.	16f#JJ	16aJJ	.	.
16r	.	16r	.	16r	16r	.	.
16C#	.	16B	.	16e	16g#	.	.
16r	.	16r	.	16r	16r	.	.
16BB	.	16A	.	16d	16f#	.	.
8.r	.	4r	.	4r	4r	.	.
8.EL	.	.	.	.	.	.	.
.	.	4A	.	4d	4f#	.	.
8EJ	.	.	.	.	.	.	.
=67	=67	=67	=67	=67	=67	=67	=67
8.DL	.	8.c#L	.	8.f#L	8.aL	1r	1r
16DJk	.	16c#Jk	.	16f#Jk	16aJk	.	.
16r	.	16r	.	16r	16r	.	.
16C#	.	16B	.	16e	16g#	.	.
16r	.	16r	.	16r	16r	.	.
16BB	.	16A	.	16d	16f#	.	.
4r	.	8.r	.	8.r	8.r	.	.
.	.	8.BL	.	8.f#L	8.aL	.	.
4E	.	.	.	.	.	.	.
.	.	8BJ	.	8f#J	8aJ	.	.
=68	=68	=68	=68	=68	=68	=68	=68
16EELL	.	16BLL	.	16aLL	16cc#LL	16e#XLL	1r
16EEJJ	.	16BJJ	.	16aJJ	16cc#JJ	16e#JJ	.
16r	.	16r	.	16r	16r	16r	.
16EE	.	16B	.	16a	16cc#	16e#	.
16EE	.	16B	.	16a	16cc#	16e#	.
16r	.	16r	.	16r	16r	16r	.
16EELL	.	16BLL	.	16aLL	16cc#LL	16e#LL	.
16EEJJ	.	16BJJ	.	16aJJ	16cc#JJ	16e#JJ	.
16r	.	16r	.	16r	16r	16r	.
16EELL	.	16BLL	.	16aLL	16cc#LL	16e#LL	.
16EEJJ	.	16BJJ	.	16aJJ	16cc#JJ	16e#JJ	.
16r	.	16r	.	16r	16r	16r	.
8EE	.	8B	.	8a	8cc#	8e#	.
8r	.	8r	.	8r	8r	8r	.
=69	=69	=69	=69	=69	=69	=69	=69
8.DL	.	8.c#L	.	8.f#L	8.aL	1r	1r
16DJk	.	16c#Jk	.	16f#Jk	16aJk	.	.
16r	.	16r	.	16r	16r	.	.
16C#	.	16B	.	16e	16g#	.	.
16r	.	16r	.	16r	16r	.	.
16BB	.	16A	.	16d	16f#	.	.
8.r	.	8.r	.	8.r	8.r	.	.
8.EL	.	8.AL	.	8.dL	8.f#L	.	.
8EJ	.	8AJ	.	8dJ	8f#J	.	.
=70	=70	=70	=70	=70	=70	=70	=70
8DL	.	8c#L	.	8f#L	8aL	1r	1r
16DL	.	16c#L	.	16f#L	16aL	.	.
16DJJ	.	16c#JJ	.	16f#JJ	16aJJ	.	.
16r	.	16r	.	16r	16r	.	.
16C#	.	16B	.	16e	16g#	.	.
16r	.	16r	.	16r	16r	.	.
16BB	.	16A	.	16d	16f#	.	.
8.r	.	4r	.	4r	4r	.	.
8.EL	.	.	.	.	.	.	.
.	.	4A	.	4d	4f#	.	.
8EJ	.	.	.	.	.	.	.
=71	=71	=71	=71	=71	=71	=71	=71
8.DL	.	8.c#L	.	8.f#L	8.aL	1r	1r
16DJk	.	16c#Jk	.	16f#Jk	16aJk	.	.
16r	.	16r	.	16r	16r	.	.
16C#	.	16B	.	16e	16g#	.	.
16r	.	16r	.	16r	16r	.	.
16BB	.	16A	.	16d	16f#	.	.
4r	.	8.r	.	8.r	8.r	.	.
.	.	8.BL	.	8.f#L	8.aL	.	.
4E	.	.	.	.	.	.	.
.	.	8BJ	.	8f#J	8aJ	.	.
=72	=72	=72	=72	=72	=72	=72	=72
16EELL	.	16BLL	.	16aLL	16cc#LL	16e#XLL	1r
16EEJJ	.	16BJJ	.	16aJJ	16cc#JJ	16e#JJ	.
16r	.	16r	.	16r	16r	16r	.
16EE	.	16B	.	16a	16cc#	16e#	.
16EE	.	16B	.	16a	16cc#	16e#	.
16r	.	16r	.	16r	16r	16r	.
16EELL	.	16BLL	.	16aLL	16cc#LL	16e#LL	.
16EEJJ	.	16BJJ	.	16aJJ	16cc#JJ	16e#JJ	.
16r	.	16r	.	16r	16r	16r	.
16EELL	.	16BLL	.	16aLL	16cc#LL	16e#LL	.
16EEJJ	.	16BJJ	.	16aJJ	16cc#JJ	16e#JJ	.
16r	.	16r	.	16r	16r	16r	.
8EE	.	8B	.	8a	8cc#	8e#	.
8r	.	8r	.	8r	8r	8r	.
==	==	==	==	==	==	==	==
*-	*-	*-	*-	*-	*-	*-	*-
